X: 8507
T: Creel Of Turf, The
R: jig
M: 6/8
K: Edorian
BEE BEE|AFD D2A|BEE BEE|ABc ~d3|
BEE BEE|AFD D2A|Bcd AFD|1 FEE E2A:|2 FEE EFA||
Bee efg|fdd dBA|Bee efg|fdd d2A|
Bee efg|fdd dBA|~B3 Bcd|1 AGF EFA:|2 AGF E2A||

